X:97
T:Paddy's Nestare
Z: id:dc-jig-64
M:6/8
L:1/8
K:E Dorian
A|BdcA GEED|EAce dec2|BAG AFG|DED AGF|G3 G:|!
AB|cAd cAG|Bdd d2c|dBA GFG|fdB cAF|GFG EA,2:|[2 fed cBA|]!